X:1
T:Title
%%score [ 1 ( 2 3 ) ( 4 5 ) ( 6 7 ) ]
L:1/8
Q:1/4=120
M:2/2
K:G
V:1 treble nm="S."
V:2 treble nm="A."
V:3 treble 
V:4 treble-8 nm="T."
V:5 treble-8 
V:6 bass nm="B."
V:7 bass 
V:1
"^Adagio"!pp! G3 G | A8 |"^The haven" (.A.A) z2 z2 G>G | A8 | ^A8 |"^C.V. Stanford" B8 | %6
w: Where the|grey|bush- es by the|grey|sea|grow,|
[M:2/2] z8 | G3 B d4 | (d2 B2 A2) E2 | ^D8 | F4 F3 F | A6 A2 | c6!<(! B2 | d6"^poco" c2!<)! | e8 | %15
w: |Where the grey|is * * lands|lie,|Na- ked and|bare to|all the|winds that|blow,|
!>(! e4 c3 A |"^," G8!>)! | A8 | B8- | B2 z2 z2 G2 | E8 | ^D8 | E8 | z8 | z2 A2 B2 A2 | e6 c2 | %26
w: Un- der the|dim|grey|sky,|* the|dim|grey|sky.||The ve- ry|flow'rs are|
 B8 | z8 | z2 B2 c2 B2 | =f6 d2 | ^c8 | z2 ^c2 c3 d | A6 z2 | z8 | z!pp! B e2- e^def | eB A4 ^c2 | %36
w: grey,||The ve- ry|flow'rs are|grey,|and dare not|show||the blue * we know the|lit- tle hare- bell|
 B8- | B4 z4 | z4 A3 A | B8 | (.A.A) z2 G3 G | A8 | B8 | !fermata!E8 |] %44
w: by.||Where the|grey|bush- es by the|grey|sea|grow.|
V:2
!pp! [B,E]3 [B,E] | [^CE]8 | (.[^CE].[CE]) z2 z2 [B,E]>[B,E] | [^CE]8 | [CE]8 | [B,F]8 | %6
w: Where the|grey|bush- es by the|grey|sea|grow,|
[M:2/2] z4 [DF]3 [DF] | (G6 F2) | (B2 G2 F2) A2 | F8 | B,4 B,3 B, | [CE]6 [CE]2 | [CE]4!<(! [DG]4 | %13
w: Where the|grey *|is * * lands|lie,|Na- ked and|bare to|all the|
 [EG]4"^poco" [EG]4!<)! | [E^G]8 |!>(! [EA]4 [EA]3 E |"^," E8!>)! | E8 | A,8- | A,2 z2 z2 E2 | %20
w: winds that|blow,|Un- der the|dim|grey|sky,|* the|
 ^C8 | B,8 | A,8 | z2 E2 E3 D | E8- | E6 E2 | F8 | z2 =F2 F3 E | =F8- | F6 =F2 | G8 | z2 G2 G3 =F | %32
w: dim|grey|sky.|The ve- ry|flow'rs|* are|grey,|The ve- ry|flow'rs|* are|grey,|and dare not|
 E6 [EA]2 |!pp! [DA]4"^sempre" [E^A]4 | [EB]3 [EB] B3 B | [EB][E^G] [EF]4 [EF]2 |"^," [E^G]8 | %37
w: show, and|dare not|show the * we|know the hare- bell|by.|
"^," [EG]8 | E8 | E8 | (.E.E) z2 [B,E]3 [B,E] | [^CE]8 | [B,F]8 | !fermata![B,E]8 |] %44
w: Grey,|grey,|grey|bush- es by the|grey|sea|grow.|
V:3
 x4 | x8 | x8 | x8 | x8 | x8 |[M:2/2] x8 | D8 | (D4 A,2) ^C2 | B,8 | x8 | x8 | x8 | x8 | x8 | x8 | %16
w: ||||||||||||||||
 x8 | x8 | x8 | x8 | x8 | x8 | x8 | x8 | x8 | x8 | x8 | x8 | x8 | x8 | x8 | x8 | x8 | x8 | %34
w: ||||||||||||||||||
 x4 (!courtesy!^F2 E)^D | x8 | x8 | x8 | x8 | x8 | x8 | x8 | x8 | x8 |] %44
w: blue * *||||||||||
V:4
!pp! G3 G | E8 | (.E.E) z2 z2 G>G | E8 | E8 | D8 |[M:2/2][K:treble-8] z4 B3 B | B8 | (B4 d2) A2 | %9
w: Where the|grey|bush- es by the|grey|sea|grow,|Where the|grey|is * lands|
 F8 | F4 F3 F | F6 F2 | G6!<(! B2 | B6"^poco" c2!<)! | (c4 B4) |!>(! A4 A3 A |"^," B8!>)! | ^c8 | %18
w: lie,|Na- ked and|bare to|all the|winds that|blow, *|Un- der the|dim|grey|
 B8- | B2 z2 z2 B2 | A8 | F8 | F8 | z2 [FA]2 [FA]3 [FB] | ((A8 | A2) B2 c2) A2 |"^*" [AB]8 | %27
w: sky,|* the|dim|grey|sky.|The ve- ry|flow'rs|* * * are|grey,|
 z2 [^GB]2 [GB]3 [Gc] | (B8- | B2 c2 d2) B2 | [!courtesy!=G_B]8 | z2 _B2 B3 B | G6 G2 | %33
w: The ve- ry|flow'rs|* * * are|grey,|and dare not|show, and|
!pp! !courtesy!^F4"^sempre" G4 | ^G3 G A3 A | ^GB ^c4 A2 |"^," B8 |"^," !courtesy!=G8 | G8 | B8 | %40
w: dare not|show the blue we|know the hare- bell|by.|Grey,|grey,|grey|
 (.G.G) z2 G3 G | E8 | ^D8 | !fermata!E8 |] %44
w: bush- es by the|grey|sea|grow.|
V:5
 x4 | x8 | x8 | x8 | x8 | x8 |[M:2/2][K:treble-8] x8 | x8 | x8 | x8 | x8 | x8 | x8 | x8 | x8 | x8 | %16
 x8 | x8 | x8 | x8 | x8 | x8 | x8 | x8 | F8- | F6 F2 | x8 | x8 | ^G8- | G6 ^G2 | x8 | x8 | x8 | %33
 x8 | x8 | x8 | x8 | x8 | x8 | x8 | x8 | x8 | x8 | x8 |] %44
V:6
!pp! E,3 E, | A,,8 | (.A,,.A,,) z2 z2 E,>E, | A,,8 | G,,8 | B,,8 |[M:2/2] z4 [B,,D,]3 [B,,D,] | %7
w: Where the|grey|bush- es by the|grey|sea|grow,|Where the|
 D,8 | D,6 E,2 | ^D,8 | B,,4 B,,3 B,, | A,,6 A,,2 | G,,6!<(! G,2 | [E,G,]4"^poco" [E,G,]4!<)! | %14
w: |* lands|lie,|Na- ked and|bare to|all the|winds that|
 [D,E,]8 |!>(! [C,E,]4 [A,,E,]3 [C,E,] |"^," E,8!>)! | %17
w: blow,|Un- der the|dim|
"^This edition""^?""^Andrew Sims 2004" [A,,E,]8 | [F,,^D,]8- | [F,,D,]2 z2 z2 G,,2 | A,,8 | B,,8 | %22
w: grey|sky,|* the|dim|grey|
 C,8 | z2 C,2 C,3 D, | (C,8- | C,2 B,,2 A,,2)"^* T1: a, T2: b" E,2 | ^D,8 | %27
w: sky.|The ve- ry|flow'rs|* * * are|grey,|
 z2 !courtesy!=D,2 D,3 E, | (D,8- | D,2 C,2 B,,2) =F,2 | E,8 | z2 E,2 E,3 D, | ^C,6 C,2 | %33
w: The ve- ry|flow'rs|* * * are|grey,|and dare not|show, and|
!pp! D,4"^sempre" !courtesy!=C,4 | B,,3 B,, B,,3 B,, | B,,B,, B,,4 B,,2 |"^," B,,8 |"^," B,,8 | %38
w: dare not|show the blue we|know the hare- bell|by.|Grey,|
 [A,,^C,]8 | [G,,D,]8 | (.[A,,^C,].[A,,C,]) z2 E,3 E, | A,,8 | [F,,A,,]8 | !fermata![E,,B,,]8 |] %44
w: grey,|grey|bush- es by the|grey|sea|grow.|
V:7
 x4 | x8 | x8 | x8 | x8 | x8 |[M:2/2] z8 | (G,,6 B,,2) | (G,,2 B,,2 D,2) A,,2 | B,,8 | x8 | x8 | %12
w: |||||||grey *|is * * *||||
 x8 | x8 | x8 | x8 | x8 | x8 | x8 | x8 | x8 | x8 | x8 | x8 | x8 | x8 | x8 | x8 | x8 | x8 | x8 | %31
w: |||||||||||||||||||
 x8 | x8 | x8 | x8 | x8 | x8 | x8 | x8 | x8 | x8 | x8 | x8 | x8 |] %44
w: |||||||||||||

